_includes/icons/color-wma.svg

<svg fill="#666" height="50" viewBox="0 0 48 48" width="50" xmlns="http://www.w3.org/2000/svg"><path d="m40 45h-32v-42h22l10 10z" fill="#ffc107"/><path d="m38.5 14h-9.5v-9.5z" fill="#fff3e0"/><g fill="#c47205"><path d="m16.515625 29.300781.945313-6.253906h1.988281l-1.769531 9.953125h-2.019532l-1.160156-5.863281-1.148437 5.863281h-2.023438l-1.777344-9.953125h2.003907l.9375 6.25 1.167968-6.25h1.6875z"/><path d="m23.160156 23.046875 1.878907 7.199219 1.875-7.199219h2.625v9.953125h-2.015625v-2.691406l.183593-4.152344-1.988281 6.84375h-1.367187l-1.988282-6.84375.183594 4.148438v2.695312h-2.011719v-9.953125z"/><path d="m36.027344 30.964844h-2.742188l-.53125 2.035156h-2.128906l3.109375-9.953125h1.839844l3.132812 9.953125h-2.148437zm-2.304688-1.675781h1.859375l-.929687-3.550782z"/></g></svg>

<svg xmlns="http://www.w3.org/2000/svg" viewBox="0 0 48 48" width="50" height="50" fill="#666"><path d="M 40 45 L 8 45 L 8 3 L 30 3 L 40 13 Z" fill="#ffc107"/><path d="M 38.5 14 L 29 14 L 29 4.5 Z" fill="#fff3e0"/><path d="M 16.515625 29.300781 L 17.460938 23.046875 L 19.449219 23.046875 L 17.679688 33 L 15.660156 33 L 14.5 27.136719 L 13.351563 33 L 11.328125 33 L 9.550781 23.046875 L 11.554688 23.046875 L 12.492188 29.296875 L 13.660156 23.046875 L 15.347656 23.046875 Z" fill="#c47205"/><path d="M 23.160156 23.046875 L 25.039063 30.246094 L 26.914063 23.046875 L 29.539063 23.046875 L 29.539063 33 L 27.523438 33 L 27.523438 30.308594 L 27.707031 26.15625 L 25.71875 33 L 24.351563 33 L 22.363281 26.15625 L 22.546875 30.304688 L 22.546875 33 L 20.535156 33 L 20.535156 23.046875 Z" fill="#c47205"/><path d="M 36.027344 30.964844 L 33.285156 30.964844 L 32.753906 33 L 30.625 33 L 33.734375 23.046875 L 35.574219 23.046875 L 38.707031 33 L 36.558594 33 Z M 33.722656 29.289063 L 35.582031 29.289063 L 34.652344 25.738281 Z" fill="#c47205"/></svg>
